!!!COM: Palestrina, Giovanni Perluigi da
!!!OPR: Missa Salvum me fac
!!!OMD: Sanctus
!!!OTL: First Section
**kern	**kern	**kern	**kern	**kern
*Ibass	*Itenor	*Icalto	*Icant	*Icant
!Bassus	!Tenor	!Altus	!Cantus 2	!Cantus 1
*clefF4	*clefGv2	*clefG2	*clefG2	*clefG2
*k[b-]	*k[b-]	*k[b-]	*k[b-]	*k[b-]
*G:dor	*G:dor	*G:dor	*G:dor	*G:dor
*M4/2	*M4/2	*M4/2	*M4/2	*M4/2
=1	=1	=1	=1	=1
0r	1r	0r	0r	0g
.	[1G	.	.	.
=2	=2	=2	=2	=2
0r	1G]	0d	0r	0b-
.	2.B-	.	.	.
.	4c	.	.	.
=3	=3	=3	=3	=3
0r	1d	1f	0dd	1a
.	1B-	1g	.	[1dd
=4	=4	=4	=4	=4
0r	0A	1a	1ff	2dd]
.	.	.	.	2cc
.	.	[1a	1ee	1cc
=5	=5	=5	=5	=5
1r	0d	2a]	2.dd	2.ff
.	.	2f	.	.
.	.	.	4cc	4ee-
[1G	.	2.g	4b-	4dd
.	.	.	4a	4cc
.	.	.	2b-	[2dd
.	.	4a	.	.
=6	=6	=6	=6	=6
1G]	0r	0b-	2g	4dd]
.	.	.	.	4b-
.	.	.	1gg	1ee-
1B-	.	.	.	.
.	.	.	2ff	2dd
=7	=7	=7	=7	=7
1c	0r	1g	1ee-	2cc
.	.	.	.	2b-
1d	.	1f	[1dd	1a
=8	=8	=8	=8	=8
0r	0G	2.b-	2dd]	1.g
.	.	.	2g	.
.	.	4a	.	.
.	.	4g	2.b-	.
.	.	4f	.	.
.	.	[2g	.	[2b-
.	.	.	4cc	.
=9	=9	=9	=9	=9
0r	1B-	2g]	1dd	2b-]
.	.	1f	.	2a
.	1c	.	2.cc	1g
.	.	2e	.	.
.	.	.	4b-	.
=10	=10	=10	=10	=10
0D	1d	2.f	1a	2f
.	.	.	.	2d
.	.	4e	.	.
.	[1d	4d	1r	2f
.	.	4c	.	.
.	.	2B-	.	2g
=11	=11	=11	=11	=11
1F	2d]	1A	0r	2a
.	2c	.	.	2f
1E	1c	1G	.	1g
=12	=12	=12	=12	=12
1D	2.f	2r	0dd	2.a
.	.	2d	.	.
.	4e	.	.	4g
1r	2d	2f	.	2a
.	2G	2g	.	2b-
=13	=13	=13	=13	=13
0r	1d	2a	1ff	4f
.	.	.	.	4g
.	.	2f	.	4a
.	.	.	.	4b-
.	4c	2g	1ee	1cc
.	4d	.	.	.
.	4e	2c	.	.
.	4f	.	.	.
=14	=14	=14	=14	=14
0G	1g	0d	2dd	2.b-
.	.	.	2g	.
.	.	.	.	4a
.	1r	.	2b-	1g
.	.	.	2cc	.
=15	=15	=15	=15	=15
0B-	0d	2r	2dd	1f
.	.	2d	2.ff	.
.	.	2f	.	1r
.	.	.	4ee	.
.	.	2g	2dd	.
=16	=16	=16	=16	=16
0A	1f	0a	2cc	0r
.	.	.	1dd	.
.	1e	.	.	.
.	.	.	2cc#	.
=17	=17	=17	=17	=17
1.d	2d	2f	1dd	1a
.	1f	1d	.	.
.	.	.	2r	2b-
2c	2e	2e	2g	2cc
=18	=18	=18	=18	=18
2.B-	2d	2f	2.b-	1dd
.	2G	2.g	.	.
4A	.	.	4cc	.
4G	2.B-	.	[1dd	2r
4F	.	4a	.	.
[2G	.	[2b-	.	2g
.	4c	.	.	.
=19	=19	=19	=19	=19
2G]	2d	2b-]	2dd]	2b-
4F	2G	4a	2ee	2cc
4E	.	4g	.	.
1D	2A	2.f	2ff	1dd
.	2B-	.	2dd	.
.	.	8e	.	.
.	.	8d	.	.
=20	=20	=20	=20	=20
2C	2c	1.g	1.ee-	2r
2.E-	4B-	.	.	2g
.	4A	.	.	.
.	2G	.	.	2.b-
4D	.	.	.	.
[2BB-	[2d	4f	[2dd	.
.	.	4e-	.	4cc
=21	=21	=21	=21	=21
4BB-]	4d]	1d	4dd]	1dd
4C	4e-	.	4cc	.
4D	2f	.	2b-	.
4E-	.	.	.	.
2F	2e-	2r	2a	2cc
[2G	2d	2G	2g	[2b-
=22	=22	=22	=22	=22
4G]	4G	2.B-	0dd	4b-]
4F#	4A	.	.	4a
2G	4B-	.	.	1g
.	4G	4c	.	.
1D	1A	1d	.	.
.	.	.	.	2f#
=23	=23	=23	=23	=23
1r	2G	2B-	[0dd	0g
.	1d	2G	.	.
[1G	.	1d	.	.
.	2B-	.	.	.
=24	=24	=24	=24	=24
2G]	2d	2r	1dd]	1r
2F	2f	1a	.	.
2A	2e	.	1r	2r
[2B-	[2d	2f	.	[2dd
=25	=25	=25	=25	=25
2B-]	2d]	2g	1r	2dd]
1A	2e	1a	.	2cc
.	2c	.	2r	2ee
2F	2d	2a	[2dd	2ff
=26	=26	=26	=26	=26
2G	1e	2g	2dd]	1ee
2A	.	2e	2cc#	.
1D	2.f	[1a	2dd	2r
.	.	.	[2ff	[2dd
.	4g	.	.	.
=27	=27	=27	=27	=27
1A	2a	0a]	2ff]	2dd]
.	2A	.	2ee	2cc
2A	2r	.	2cc	2ee
4D	[2d	.	2dd	[2ff
4E	.	.	.	.
=28	=28	=28	=28	=28
4F	2d]	2r	1a	2ff]
4G	.	.	.	.
2A	2c#	1a	.	2ee
1D	2d	.	2.f	1dd
.	[2f	2d	.	.
.	.	.	4g	.
=29	=29	=29	=29	=29
0r	2f]	2f	4a	2.cc
.	.	.	4b-	.
.	2e	1g	2.cc	.
.	.	.	.	4dd
.	2c	.	.	2ee
.	.	.	4b-	.
.	2d	2f	[2a	[2ff
=30	=30	=30	=30	=30
0r	1B-	2d	4a]	4ff]
.	.	.	8g	4ee
.	.	.	8f	.
.	.	2d	2g	1dd
.	1A	2e	[1a	.
.	.	2a	.	2cc#
=31	=31	=31	=31	=31
2r	0d	2f	2a]	2.dd
1G	.	1g	2d	.
.	.	.	.	4cc
.	.	.	[1dd	2b-
2F#	.	2a	.	2a
=32	=32	=32	=32	=32
2G	2r	2g	1dd]	2.b-
1B-	1d	4f	.	.
.	.	4e	.	4a
.	.	2d	1r	4f
.	.	.	.	4g
2A	2c#	2e	.	[2a
=33	=33	=33	=33	=33
2F	1d	2f	2r	2a]
2G	.	2d	1dd	2b-
1E	2G	2r	.	1g
.	2G	[2g	2cc#	.
=34	=34	=34	=34	=34
1D	2A	2g]	2dd	0r
.	2A	2f	2ff	.
2.G	1G	2g	2ee	.
.	.	[2b-	[2dd	.
4A	.	.	.	.
=35	=35	=35	=35	=35
2B-	0r	2b-]	2dd]	1r
2c	.	2a	4cc	.
.	.	.	4b-	.
2d	.	2f	2a	2r
2G	.	2g	2b-	[2dd
=36	=36	=36	=36	=36
0r	2r	1e	1g	2dd]
.	1g	.	.	2cc#
.	.	1d	1a	1dd
.	2f#	.	.	.
=37	=37	=37	=37	=37
0r	2g	0r	2r	1b-
.	1e-	.	1g	.
.	.	.	.	2cc
.	2d	.	2f#	[2dd
=38	=38	=38	=38	=38
0r	2B-	2r	1g	2dd]
.	2c	1g	.	2ee-
.	1A	.	2a	2.cc
.	.	2f#	2a	.
.	.	.	.	4dd
=39	=39	=39	=39	=39
2r	1G	2g	2.b-	2ee-
1G	.	1b-	.	2dd
.	.	.	4cc	.
.	1r	.	[1dd	2g
2F#	.	2a	.	2a
=40	=40	=40	=40	=40
2G	2r	2g	1dd]	2.b-
1B-	1d	4f	.	.
.	.	4e	.	8a
.	.	.	.	8g
.	.	2d	1r	4f
.	.	.	.	4g
[2A	2c	2e	.	4a
.	.	.	.	4b-
=41	=41	=41	=41	=41
2A]	2e	1A	2r	2cc
2F	1f	.	1dd	2a
2G	.	2r	.	2b-
[2A	2e	[2a	2cc	2a
=42	=42	=42	=42	=42
2A]	2c	2a]	2ee	2r
1D	2d	2f	1ff	1dd
.	1A	2a	.	.
2A	.	[2cc	2ee	2cc
=43	=43	=43	=43	=43
2F	2r	2cc]	1dd	2a
2G	1G	2b-	.	2b-
2E	.	2g	2ee	2cc
2D	2F	[2a	[2ff	2dd
=44	=44	=44	=44	=44
2F	2A	2a]	2ff]	2cc
2G	2B-	2g	2.dd	2b-
[1D	2A	2.f	.	[1dd
.	.	.	4cc	.
.	[2d	.	2b-	.
.	.	4e-	.	.
=45	=45	=45	=45	=45
0D]	4d]	0d	2a	1dd]
.	4c	.	.	.
.	2B-	.	1g	.
.	1A	.	.	1dd
.	.	.	2f#	.
=46	=46	=46	=46	=46
[0G	[0G	[0d	[0g	[0b
=47	=47	=47	=47	=47
0G]	0G]	0d]	0g]	0b]
*-	*-	*-	*-	*-
!!!CDT: 1525/^1526/-1594/2/2
!!!OCY: Italia
!!!AGN: Mass (Parody)
!!!AST: renaissance, vocal
!!!ASW: Motet 1538 (Jacquet)
!!!PWK: Masses, Book 2
!!!RNB: Cadence finals: D
!!!YOR: Le Opere Complete, v. 4, p. 126
!!!YOO: Rome, Italy: Fratelli Scalera
!!!END: 1992//
!!!EED: John Miller
!!!YEC: Copyright 2000, John Miller
!!!YEN: United States of America
!!!YEM: Rights to all derivative electronic formats reserved.
!!!YEM: Refer to licensing agreement for further details.
!!!YEM: This file must be accompanied by the licensing agreement.
!!!YEM: A copy of the licensing agreement may be found at http://www.music-cog.ohio-state.edu/HumdrumDatabases/Palestrina/license.txt
!!!EMD: converted to Humdrum by Bret Aarden
